svgs/regular/user-astronaut.svg

<svg xmlns="http://www.w3.org/2000/svg" viewBox="0 0 448 512"><!--! Font Awesome Pro 6.0.0-alpha3 by @fontawesome - https://fontawesome.com License - https://fontawesome.com/license (Commercial License) --><path d="M358.6 328.8C379.1 308.6 395.1 283.8 404.8 256H416c8.75 0 16-7.25 16-16v-96C432 135.2 424.8 128 416 128h-11.25C378.5 53.5 307.6 0 224 0S69.5 53.5 43.25 128H32C23.25 128 16 135.2 16 144v96C16 248.8 23.25 256 32 256h11.25c9.75 27.75 25.63 52.63 46.13 72.75C37.38 347.2 0 396.1 0 454.4V488C0 501.2 10.75 512 24 512s24-10.75 24-24v-33.63C48 406.8 86.75 368 134.4 368h13C170.9 378.2 196.8 384 224 384s53.13-5.75 76.63-16h13C361.2 368 400 406.8 400 454.4V488c0 13.25 10.75 24 24 24c13.25 0 24-10.75 24-24v-33.63C448 396.1 410.6 347.2 358.6 328.8zM224 336c-79.38 0-144-64.63-144-144S144.6 48 224 48s144 64.62 144 144S303.4 336 224 336zM304 416h-160c-17.75 0-32 14.25-32 32l0 64H160v-48C160 455.2 167.3 448 176 448S192 455.2 192 464V512h144v-64C336 430.2 321.8 416 304 416zM272 480c-8.75 0-16-7.25-16-16s7.25-16 16-16s16 7.25 16 16S280.8 480 272 480zM288 128H160C133.5 128 112 149.5 112 176V192c0 53 43 96 96 96h32c53 0 96-43 96-96V176C336 149.5 314.5 128 288 128zM204 220L192 256L180 220L144 208l36-12L192 160l12 36L240 208L204 220z"/></svg>

<svg xmlns="http://www.w3.org/2000/svg" viewBox="0 0 448 512"><!-- Font Awesome Pro 5.15.3 by @fontawesome - https://fontawesome.com License - https://fontawesome.com/license (Commercial License) --><path d="M358.6 328.8c20.5-20.2 36.4-45.1 46.2-72.8H416c8.8 0 16-7.2 16-16v-96c0-8.8-7.2-16-16-16h-11.2C378.5 53.5 307.6 0 224 0S69.5 53.5 43.2 128H32c-8.8 0-16 7.2-16 16v96c0 8.8 7.2 16 16 16h11.2c9.8 27.7 25.7 52.6 46.2 72.8C37.4 347.3 0 396.1 0 454.4V488c0 13.3 10.7 24 24 24s24-10.7 24-24v-33.6c0-47.6 38.8-86.4 86.4-86.4h13c23.5 10.2 49.4 16 76.6 16s53.1-5.8 76.6-16h13c47.6 0 86.4 38.8 86.4 86.4V488c0 13.3 10.7 24 24 24s24-10.7 24-24v-33.6c0-58.3-37.4-107.1-89.4-125.6zM224 336c-79.4 0-144-64.6-144-144S144.6 48 224 48s144 64.6 144 144-64.6 144-144 144zm80 80H144c-17.7 0-32 14.3-32 32v64h48v-48c0-8.8 7.2-16 16-16s16 7.2 16 16v48h144v-64c0-17.7-14.3-32-32-32zm-32 64c-8.8 0-16-7.2-16-16s7.2-16 16-16 16 7.2 16 16-7.2 16-16 16zm16-352H160c-26.5 0-48 21.5-48 48v16c0 53 43 96 96 96h32c53 0 96-43 96-96v-16c0-26.5-21.5-48-48-48zm-84 92l-12 36-12-36-36-12 36-12 12-36 12 36 36 12-36 12z"/></svg>
